X:1
T:Perche mi fai morire
T:Perche mi fai morire
T:Jhan Gero
T:Source : Trium vocum cantiones---Nürnberg---J.Petreius---1541. Editor : André Vierendeels (26/09/16).
T:Notes : Original clefs : C2, C4, F4 Editorial accidentals above the staff Original note values have been halved Square brackets indicate ligatures
T:©
T:©
T:©
T:©
T:©
T:©
T:©
C:Jhan Gero
Z:©
%%score [ 1 2 3 ]
L:1/8
Q:1/4=120
M:2/2
K:C
V:1 treble nm="Alto" snm="A"
V:2 treble-8 nm="Tenor" snm="T"
V:3 bass nm="Bass" snm="B"
V:1
 z8 | z8 | A4 G2 E2 | F2 D4 C2 | D3 C B,4 | A,4 z2 E2 | E2 F2 G2 G2 | A2 F2 E2 F2- | FE A4 G2 | %9
w: ||Per- che mi|fai mo- *|* * ri-|re, don-|na se te sol|a- * * *||
 A8- | A8 | z4 A4 | A2 A2 G2 G2 | A4 D4 | A4 G2 E2 | F2 A4 G2 | A2 F2 E3 D | C2 D2 B,4 | A,8 | %19
w: mo,|_|per-|che ca- gion la|ma- no|s'op- po- ne|ch'io non veg-|gia, quel be- gli''oc-|chi so- a-|vi,|
 E4 C2 D2 | E2 F2 G4 | A4 G2 FE | F2 E4 D2 | E4 A,4 | z4 C4 | D2 D2 E2 G2- | GF F4 E2 | F8 | %28
w: che coi soi|sguard' ho- ne-|sta- ment' al _|_ te- *|* ri,|mi|con- du- con a|_ _ ta- *|le,|
 z2 F2 G2 G2 | A2 A2 D2 G2 | E2 F3 E D2- | D2 C2 D4 | C6 A,B, | CDEF GA B2- | BA A4 G2 | A8- | %36
w: che mil- le|volt' il di mo-||* * ro,|et ri- *||* * nas- *|co,|
 A4 D4 | E2 G2 F4 | E2 D4 C2 | D4 z4 | z8 | D4 G3 F | E2 D3 C C2- | C2 B,2 C4- | C2 D2 E4 | z4 F4 | %46
w: _ ma|di gio- ia|mi pa- *|sco,||si dol- ce|ch'in me _ pio-||* * ve,|tan-|
 G2 E2 F2 G2 | A3 G F2 E2- |"^#" ED D4 C2 | D8 | F8 | E6 G2 | F2 E2 D4 | C6 C2 | D2 E2 F2 D2 | %55
w: to pia- cer ch'io|non in- vi- *|* * di'a Gio-|ve,|don-|que dol-|ce ben mi-|o, poi|che co- gno- sc'in|
 E4 D4 | C2 A,2 B,4 | A,2 D2 C2 B,2- | B,A, A,4 G,2 | A,8- | A,4 z2 A2 | A2 A2 F3 E | %62
w: me si|bel de- si-|re, si bel de-|* * si- *|re|_ non|mi far piu _|
 D2 G2 E2 F2- | FEDC D4 | C4 F4 | E2 C2 D2 E2 | A,2 D2 C2 E2- | ED D4 C2 | D4 F4 | E2 C2 D2 E2 | %70
w: _ mo- ri- *||re, ma|vin- ta di pie-|ta fa'l mio de-|* * si- *|re, ma|vin- ta di pie-|
 A,2 D2 C2 E2- | ED D4 C2 | D8 |] %73
w: ta fa'l mio de-|* * si- *|re.|
V:2
 z8 | A4 G2 E2 | F2 D4 C2 | D4 E4 | D2 A4 G2 | A2 A2 A2 B2 | c2 d2 e4 | A3 B c2 d2- | dcBA B4 | %9
w: |Per- che mi|fai mo- *|ri- re,|mo- ri- *|re, don- na se|te sol' a-|||
 A8 | z2 A2 A2 A2 | G2 G2 A4 | D2 A2 e2 e2 | d2 c2 B4 | A2 A2 B2 c2 | d3 c B4 | A2 d2 c2 B2- | %17
w: mo,|per- che ca-|gion la ma-|no s'op- po- ne|ch'io non veg-|gia, quel be- gli'oc-|chi so- a-||
"^#" BA A4 G2 | A4 z2 A2 | A2 G2 A2 B2 | c2 A2 G2 c2- | c2 BA B2 c2 | A3 G F4 | E4 z2 F2 | %24
w: |vi, che|coi soi sguard' _|ho- ne- sta ment'|_ al- * te- *||ri, mi|
 G2 G2 A2 c2- | c2 B2 c3 B | A2 GF G4 | F4 c4 | d2 d2 e2 e2 | A4 B4 | c3 B AG A2- | A2 G2 F4 | %32
w: con du- con a|_ ta- * *||le, che|mil- le volt il|di mo-||* * ro,|
 E2 A3 Bcd | e2 c2 B2 e2 | dcBA B4 | A8 | z2 A2 B2 d2 | c4 A4 | G2 F2 E2 A2 | A3 G F2 E2 | %40
w: et ri- * * *||na- * * * *|co,|ma di gio-|ia mi|pa- * sco, si|dol- ce ch'in me|
 D2 G4 F2 | G4 E4 | G3 F E2 DC | D4 C4 | z4 z2 c2 | d2 B2 c2 d2 | e2 c2 d2 cB | A4 A3 G | %48
w: pio- * *|ve, si|dol- ce ch'in me _|op- ve,|tan-|to pia- cer ch'io|non in- vi- * *|di'a Gio- *|
 F2 ED E4 | D8 | d8 | c6 B2 | A2 G2 F4 | E4 z4 | z2 G2 A2 B2 | c2 A2 BAGF | E2 A4 G2 | A2 F2 G3 F | %58
w: |ve,|don-|que dol-|ce ben mi-|o,|poi che co-|gno- sc'in me _ _ _|_ _ _|* si bel de-|
 E2 F2 D4 | E4 z2 A2 | A2 A2 F3 E | D4 d3 c | B2 c3 BAG | F2 A4 G2 | A8 | z2 A2 G2 E2 | %66
w: si- * *|re, non|mi far piu _|_ mo- *||* ri- *|re,|ma vin- ta|
 F2 G2 A3 G | F2 D2 E4 | D8 | A4 G2 E2 | F2 G2 A3 G | F2 D2 E4 | D8 |] %73
w: di pie- ta fa'l|mio de- si-|re,|ma vin- ta|di pie- ta fa'l|mio de- si-|re.|
V:3
 A,4 G,2 E,2 | F,2 D,4 C,2 | D,4 E,4 | D,2 B,,2 A,,4 |"^#" z2 D,2 D,2 E,2 | F,6 G,2 | %6
w: Per- che mi|fai mo _|ri- *|* * re,|don- na se|te sol|
 A,2 F,2 E,2 E,2 | F,2 D,2 A,G,F,E, | D,2 F,2 E,4 | A,,4 D,4 | D,2 D,2 C,2 D,2 | E,4 A,,4 | %12
w: a- mo, don- na|se te sol _ _ _|a- * *|mo, per-|che ca- gion la|ma- no|
 F,4 E,2 E,2 | F,2 A,4 G,2 | A,2 F,2 E,4 | z2 D,2 E,4 | F,2 D,2 A,2 E,2 | F,2 D,2 E,4 | %18
w: s'op- po- ne|ch'io non veg-|* * gia,|quel be-|gli'oc- chi so- a-||
 A,,2 D,2 C,2 D,2 | E,2 E,2 F,2 D,2 | C,2 D,2 E,4 | F,4 E,4 | z2 A,,2 A,,2 B,,2 | C,4 D,2 F,2- | %24
w: vi, che coi soi|sguard' ho- ne- sta-|ment' al- te|_ ri,|mi con du-|con a ta-|
 F,2 E,2 F,3 E, | D,4 C,4 | D,4 C,4 | F,8- | F,4 z4 |"^#" F,4 G,2 G,2 | A,2 A,2 D,2 F,2- | %31
w: |||le,|_|che mil- le|volt' il di mo-|
 F,2 E,2 D,4 | A,,6 A,,2- | A,,B,,C,D, E,3 F, | G,2 A,2 E,4 | z4 D,4 | F,2 A,2 G,2 F,2 | E,4 D,4 | %38
w: * * ro,|et ri-|* * * * na- *|* * sco,|ma|di gio- ia mi|pa- sco,|
 z4 A,,4 | D,6 C,2 | B,,2 G,,2 A,,4 | G,,2 G,3 F,E,D, | C,2 B,,2 C,2 A,,2 | G,,4 z4 | F,4 G,2 E,2 | %45
w: si|dol- ce|ch'in me pio-|||ve,|tan- to pia-|
 F,2 G,2 A,2 B,2 | G,2 A,2 D,2 E,2 | F,3 E, D,2 C,2 | D,2 B,,2 A,,4 | D,4 z4 | D,8 | A,6 E,2 | %52
w: cer ch'io non in-|vi- di'a Gio- *|||ve,|don-|que dol-|
 F,2 C,2 D,4 | A,,4 A,3 G, | F,2 E,2 D,4 | C,4 z4 | C,4 D,2 E,2 | F,2 D,2 E,3 D, | C,2 A,,2 B,,4 | %59
w: ce ben mi-|o, dol- ce|ben mi- *|o,|poi che co-|gno- sc'in me si|bel de- si-|
 A,,8 | z2 A,2 A,2 A,2 | F,3 E, D,2 D,2 |"^#" G,F,E,D, C,2 D,2- | D,C,B,,A,, B,,4 | A,,4 D,4 | %65
w: re,|non mi far|piu _ _ mo-|ri- * * * * *||re, ma|
 C,2 A,,2 B,,2 C,2 |"^#" D,2 C,B,, A,,2 C,2 | D,2 B,,2 A,,4 | D,4 z2 D,2 | C,2 A,,2 B,,2 C,2 | %70
w: vin- ta di pie-|ta _ _ _ fa'l|mio de- si-|re, ma|vin- ta di pie-|
 D,2 C,B,, A,,2 C,2 | D,2 B,,2 A,,4 | D,8 |] %73
w: ta _ _ _ fa'l|mio de- si-|re.|

